X:1
T:[ID 11-28d]
T:[ID 11-28d]
T:Bezeichnung standardisiert: Walzer Nr 10 Walzer
T:Urheber unbekannt Datum in der hier transkribierten schriftlichen Quelle: vermutlich um 1800
C:Urheber unbekannt
C:Datum in der hier transkribierten schriftlichen Quelle: vermutlich um 1800
%%score ( 1 2 )
L:1/8
M:3/8
K:F
V:1 treble 
V:2 treble 
V:1
 AB | c z c z c z | c z g z a z | b4 ge |"^1)" f/a/ cA/B/ | c z c z c z | c z g z a z | b4 ge | %8
 f2 z2 :: c2 | b b2 b2 b | a a2 a2 a | e e2 e2 e | (fa) c2 c2 | b b2 b2 b | a a2 a2 a | e e2 e2 f | %17
 f2 :: c2 |!p! c2 A2 F2 | AG G2 BG | GECCDE | FEFGAB | c2 A2 F2 | AG G2 BG |"^1)" F/E/D/C/D/E/ | %26
 F2 z2 :: (G/F/E/D/) | C/B,/C/D/ E/D/E/F/ G/F/E/D/ | C/B,/C/D/ E/D/E/F/ G/F/E/D/ | %30
 C/B,/C/D/ E/D/E/F/ G/F/G/A/ |"^1)" B4 c2 | (c2 A2) .F2 | AG (^FG)(BG) | (=FEDCDE) | F2 z2 :| %36
V:2
 x2 | x6 | x6 | x6 | x3 | x6 | x6 | x6 | x4 :: x2 | c c2 c2 c | c c2 c2 c | B B2 B2 B | x6 | %14
 c c2 c2 c | c c2 c2 c | x6 | x2 :: x2 | x6 | x6 | x6 | x6 | x6 | x6 | x3 | x4 :: x2 | x6 | x6 | %30
 x6 | x6 | x6 | x6 | x6 | x4 :| %36

